client/public/assets/icons/utility/display_text.svg

<?xml version="1.0"?><svg xmlns="http://www.w3.org/2000/svg" width="52" height="52" viewBox="0 0 52 52"><path fill="#fff" d="m43.5 2.5h-34.9c-3.4 0-6.1 2.7-6.1 6.1v34.7c0 3.4 2.7 6.1 6.1 6.1h34.8c3.4 0 6.1-2.7 6.1-6.1v-34.7c0.1-3.4-2.7-6.1-6-6.1z m-32.9 10.2c0-1.1 0.9-2 2-2h22.9c1.1 0 2 0.9 2 2v2.1c0 1.1-0.9 2-2 2h-23c-1.1 0-2-0.9-2-2v-2.1z m24.1 26.6c0 1.1-0.9 2-2 2h-20c-1.1 0-2-0.9-2-2v-2c0-1.1 0.9-2 2-2h20c1.1 0 2 0.9 2 2v2z m6.7-12.3c0 1.1-0.9 2-2 2h-26.7c-1.1 0-2-0.9-2-2v-2c0-1.1 0.9-2 2-2h26.6c1.1 0 2 0.9 2 2v2z"></path></svg>

<?xml version="1.0" encoding="utf-8"?>
<!-- Generator: Adobe Illustrator 21.1.0, SVG Export Plug-In . SVG Version: 6.00 Build 0)  -->
<svg version="1.1" id="Layer_1" xmlns="http://www.w3.org/2000/svg" xmlns:xlink="http://www.w3.org/1999/xlink" x="0px" y="0px"
	 width="52px" height="52px" viewBox="0 0 52 52" enable-background="new 0 0 52 52" xml:space="preserve">
<path fill="#FFFFFF" d="M43.5,2.5H8.6c-3.4,0-6.1,2.7-6.1,6.1v34.7c0,3.4,2.7,6.1,6.1,6.1h34.8c3.4,0,6.1-2.7,6.1-6.1V8.6
	C49.6,5.2,46.8,2.5,43.5,2.5z M10.6,12.7c0-1.1,0.9-2,2-2h22.9c1.1,0,2,0.9,2,2v2.1c0,1.1-0.9,2-2,2h-23c-1.1,0-2-0.9-2-2V12.7z
	 M34.7,39.3c0,1.1-0.9,2-2,2H12.7c-1.1,0-2-0.9-2-2v-2c0-1.1,0.9-2,2-2h20c1.1,0,2,0.9,2,2V39.3z M41.4,27c0,1.1-0.9,2-2,2H12.7
	c-1.1,0-2-0.9-2-2v-2c0-1.1,0.9-2,2-2h26.6c1.1,0,2,0.9,2,2V27z"/>
</svg>
